!!!COM: Bach, Johann Sebastian
!!!OTL: 183. Nun freut euch, lieben Christen, g'mein
!!!ONM: No. 183
!!!OCL: Erk
!!!SCA: BWV 388
!!!YOE: Riemenschneider, Albert
!!!OPR: 371 Harmonized Chorales and 69 Chorale Melodies with Figured Bass
!!!OPT: Bach Chorale Harmonizations
**harm	**root	**kern	**kern	**kern	**kern
!	!	!bass	!tenor	!alto	!sprno
*Iorgan	*Iorgan	*Iorgan	*Iorgan	*Iorgan	*Iorgan
*>[A,A,B]	*>[A,A,B]	*>[A,A,B]	*>[A,A,B]	*>[A,A,B]	*>[A,A,B]
*>norep[A,B]	*>norep[A,B]	*>norep[A,B]	*>norep[A,B]	*>norep[A,B]	*>norep[A,B]
*>A	*>A	*>A	*>A	*>A	*>A
*k[f#c#g#d#a#e#b#]	*k[f#c#g#d#a#e#b#]	*k[f#c#g#d#a#e#b#]	*k[f#c#g#d#a#e#b#]	*k[f#c#g#d#a#e#b#]	*k[f#c#g#d#a#e#b#]
*C#:	*C#:	*C#:	*C#:	*C#:	*C#:
*met(c)	*met(c)	*met(c)	*met(c)	*met(c)	*met(c)
*M4/4	*M4/4	*M4/4	*M4/4	*M4/4	*M4/4
*MM60	*MM60	*MM60	*MM60	*MM60	*MM60
I	4GG	8C#	8e#	4g#	4cc#
.	.	8D#	8d#	.	.
=1	=1	=1	=1	=1	=1
Ib	4GG	8E#	4c#	4g#	4cc#
.	.	8F#	.	.	.
V	4DD	8G#	4B#	4d#	4g#
.	.	8F#	.	.	.
Ib	4GG	4E#	[4c#	4g#	4cc#
viib	4FF#	4D#	8c#]	4dd#	4ff#
.	.	.	8B#	.	.
=2	=2	=2	=2	=2	=2
I	4GG	8C#	4.c#	4g#	4ee#
.	.	8E#	.	.	.
V	4DD	4G#	.	8.g#	4dd#
.	.	.	8B#	.	.
.	.	.	.	16f#	.
I;	4GG;	4C#;	4G#;	4e#;	4cc#;
vi	4EE	4A#	4c#	8e#	4cc#
.	.	.	.	8f##	.
=3	=3	=3	=3	=3	=3
V	8DD	4G#	8B#	8g#	8dd#
viioD7c/ii	8GG#	.	8c##	8b	8ee#
ii	4AA	4D#	4d#	8a#	4ff#
.	.	.	.	8b#	.
Ib	4GG	8E#	8G#	4cc#	4ee#
.	.	8F#	8A#	.	.
V	4DD	4G#	4B#	8g#	4dd#
.	.	.	.	16d#	.
.	.	.	.	16e#	.
=4	=4	=4	=4	=4	=4
IV	4CC	8F#	4c#	2f#	4a#
.	.	8E#	.	.	.
viib	4FF#	4D#	4d#	.	4b#
I;	4GG;	4C#;	4G#;	4e#;	4cc#;
=:|!	=:|!	=:|!	=:|!	=:|!	=:|!
*>B	*>B	*>B	*>B	*>B	*>B
!! Continuing.
I	4GG	8c#	4e#	4g#	4cc#
.	.	8B#	.	.	.
=5	=5	=5	=5	=5	=5
IVb	8CC	8A#	8a#	8cc#	4ff#
V7b	8DD	8B#	8g#	[8dd#	.
I	4GG	[4c#	4g#	8dd#]	4ee#
.	.	.	.	16cc#	.
.	.	.	.	16b#	.
V7d/V	4AA	8c#]	4f##	4a#	4dd#
.	.	16d#	.	.	.
.	.	16c#	.	.	.
Vb	8DD	8B#	4g#	8dd#	4gg#
iii	8BB	8e#	.	8b#	.
=6	=6	=6	=6	=6	=6
!!linebreak: 2
vi7b	4EE	4c#	8e#	8a#	4gg#
.	.	.	8A#	[8cc#	.
V7/V	4AA	8d#	4d#	8cc#]	4ff##
.	.	8D#	.	16b#	.
.	.	.	.	16a#	.
V;	4DD;	4G#;	4d#;	4b#;	4gg#;
Ib	4GG	4E#	[4g#	4cc#	4gg#
=7	=7	=7	=7	=7	=7
IV	4CC	8F#	8g#]	4cc#	4aa#
.	.	8G#	16f#	.	.
.	.	.	16e#	.	.
IVb	4CC	4A#	8f#	4cc#	4ff#
.	.	.	8a#	.	.
Vb	8DD	8B#	8g#	8dd#	4.gg#
V7	8DD	8G#	8f#	8b#	.
vi7	8EE	8A#	8e#	8cc#	.
vii	8FF#	8B#	8d#	[8dd#	8ff#
=8	=8	=8	=8	=8	=8
I	4GG	4c#	16e#	8dd#]	4ee#
.	.	.	16f#	.	.
.	.	.	4g#	4cc#	.
V	4DD	4G#	.	.	4dd#
.	.	.	8f#	8b#	.
vi;	4EE;	4A#;	4e#;	4a#;	4cc#;
vi	4EE	4A#	4c#	[4a#	4ee#
=9	=9	=9	=9	=9	=9
Vb	4DD	4B#	4d#	8a#]	4dd#
.	.	.	.	16g#	.
.	.	.	.	16f#	.
I	4GG	8c#	8c#	4e#	4g#
.	.	8B#	8d#	.	.
vi	4EE	4A#	4e#	8a#	4cc#
.	.	.	.	8g#	.
ii	4AA	4D#	4d#	8a#	4ff#
.	.	.	.	8b#	.
=10	=10	=10	=10	=10	=10
Ib	4GG	8E#	[4g#	4.cc#	4ee#
.	.	8F#	.	.	.
V	4DD	4G#	8.g#]	.	4dd#
.	.	.	.	8b#	.
.	.	.	16f#	.	.
I;	4GG;	4C#;	4e#;	4g#;	4cc#;
==	==	==	==	==	==
*-	*-	*-	*-	*-	*-
!!!CDT: 1685/3//-1750/7/28
!!!OCY: Deutschland
!!!AGN: chorale
!!!AST: Baroque
!!!AIN: vox
!!!YOY: 1941
!!!PPP: New York; London
!!!PPR: G. Schirmer
!!!ENC: David Huron
!!!EED: David Huron
!!!YEN: United States of America
!!!YER: 1992
!!!YEC: Copyright 1992 David Huron
!!!YEM: Rights to all derivative electronic formats reserved.
!!!YER: March 20, 1996
!!!AMT: simple quadruple
!!!EEV: 1.1
!!chor2scor: -l 2 -s 0.6 -o %b.pmx
